assets/Microphone/Flat/microphone_flat.svg

<svg width="32" height="32" viewBox="0 0 32 32" fill="none" xmlns="http://www.w3.org/2000/svg">
<path d="M22.5247 17.94C26.6502 17.94 29.9947 14.5956 29.9947 10.47C29.9947 6.34443 26.6502 3 22.5247 3C18.3991 3 15.0547 6.34443 15.0547 10.47C15.0547 14.5956 18.3991 17.94 22.5247 17.94Z" fill="#533566"/>
<path d="M2.64445 29.2101C1.81445 28.3301 1.78446 26.9601 2.56446 26.0401L15.1045 11.3401L21.2145 17.8201L5.80445 29.4801C4.84445 30.2101 3.47445 30.0901 2.64445 29.2101Z" fill="#9B9B9B"/>
<path d="M18.9958 4.00515L28.9358 14.5552C29.5958 15.2552 29.5658 16.3552 28.8658 17.0051C28.1658 17.6651 27.0758 17.6352 26.4158 16.9352L16.4758 6.38515C15.8158 5.68515 15.8458 4.59517 16.5458 3.93517C17.2458 3.27517 18.3358 3.30515 18.9958 4.00515ZM15.4146 18.5302C15.4146 19.342 14.7565 20.0002 13.9446 20.0002C13.1328 20.0002 12.4746 19.342 12.4746 18.5302C12.4746 17.7183 13.1328 17.0602 13.9446 17.0602C14.7565 17.0602 15.4146 17.7183 15.4146 18.5302Z" fill="#BEBEBE"/>
</svg>

<svg xmlns="http://www.w3.org/2000/svg" width="32" height="32" fill="none"><path fill="#533566" d="M22.525 17.94a7.47 7.47 0 1 0 0-14.94 7.47 7.47 0 0 0 0 14.94Z"/><path fill="#9B9B9B" d="M2.644 29.21c-.83-.88-.86-2.25-.08-3.17l12.54-14.7 6.11 6.48-15.41 11.66c-.96.73-2.33.61-3.16-.27Z"/><path fill="#BEBEBE" d="m18.996 4.005 9.94 10.55c.66.7.63 1.8-.07 2.45-.7.66-1.79.63-2.45-.07l-9.94-10.55c-.66-.7-.63-1.79.07-2.45.7-.66 1.79-.63 2.45.07ZM15.415 18.53a1.47 1.47 0 1 1-2.94 0 1.47 1.47 0 0 1 2.94 0Z"/></svg>
